X:903
T:Weaver's Daughter, The
T:Weaver Has a Daughter, The
R:Slow Strathspey
B:The Athole Collection
M:C
L:1/8
Q:1/4=140
K:G Minor
d|B<G G>A B<F F>d|B<G G>F e3g|f>ed>c B<G F<e|d>cB>A G2G:|
|:^f|g<d d>=e f<c c>^f|g<d d>g dg|b>dd>c B>G F<e|d>cB>A G2G:|
